X: 13733
T: Forest Queen, The
R: reel
M: 4/4
K: Fmajor
DE|:FAA2ABAG|FGAG FDCD|FAA2ABAG|FGAdc2cA|
FAA2ABAG|FGAG FDCD|Fdd2dcAc|AGEGF2DE:|
|:Fdd2dcAc|AGFG FDCD|Fdd2dcAc|dfed cdcA|
Fdd2dcAc|dfed edcd|f4fedf|edcA F2DE:|

